icon/ir/headset-help.svg

<svg stroke-width="1.5" viewBox="0 0 24 24" fill="none" xmlns="http://www.w3.org/2000/svg" height="1em" width="1em">
  <path d="M20 11C20 6.58172 16.4183 3 12 3C7.58172 3 4 6.58172 4 11" stroke="currentColor" stroke-linecap="round" stroke-linejoin="round"/>
  <path d="M2 15.4384V13.5616C2 12.6438 2.62459 11.8439 3.51493 11.6213L5.25448 11.1864C5.63317 11.0917 6 11.3781 6 11.7685V17.2315C6 17.6219 5.63317 17.9083 5.25448 17.8136L3.51493 17.3787C2.62459 17.1561 2 16.3562 2 15.4384Z" stroke="currentColor" stroke-width="1.5"/>
  <path d="M22 15.4384V13.5616C22 12.6438 21.3754 11.8439 20.4851 11.6213L18.7455 11.1864C18.3668 11.0917 18 11.3781 18 11.7685V17.2315C18 17.6219 18.3668 17.9083 18.7455 17.8136L20.4851 17.3787C21.3754 17.1561 22 16.3562 22 15.4384Z" stroke="currentColor" stroke-width="1.5"/>
  <path d="M20 18V18.5C20 19.6046 19.1046 20.5 18 20.5H14.5" stroke="currentColor" stroke-width="1.5"/>
  <path d="M13.5 22H10.5C9.67157 22 9 21.3284 9 20.5C9 19.6716 9.67157 19 10.5 19H13.5C14.3284 19 15 19.6716 15 20.5C15 21.3284 14.3284 22 13.5 22Z" stroke="currentColor" stroke-width="1.5"/>
</svg>

<svg width="24" height="24" stroke-width="1.5" fill="none" xmlns="http://www.w3.org/2000/svg"><path d="M20 11a8 8 0 1 0-16 0" stroke="currentColor" stroke-linecap="round" stroke-linejoin="round"/><path d="M2 15.438v-1.876a2 2 0 0 1 1.515-1.94l1.74-.436a.6.6 0 0 1 .745.582v5.463a.6.6 0 0 1-.746.583l-1.74-.435A2 2 0 0 1 2 15.439ZM22 15.438v-1.876a2 2 0 0 0-1.515-1.94l-1.74-.436a.6.6 0 0 0-.745.582v5.463a.6.6 0 0 0 .745.583l1.74-.435A2 2 0 0 0 22 15.439ZM20 18v.5a2 2 0 0 1-2 2h-3.5" stroke="currentColor"/><path d="M13.5 22h-3a1.5 1.5 0 0 1 0-3h3a1.5 1.5 0 0 1 0 3Z" stroke="currentColor"/></svg>
